X:122
T:Hunsden House. (p)1657.PLFD.123
M:6/4
L:1/4
Q:3/4=80
S:Playford, Dancing Master,3rd Ed.,1657
O:England
H:1657.
Z:Chris Partington.
K:D
D2 A F2 B|A F2 E2 D|d2 f ec2|B3 A3:|
|a2 g f c2|d2 e Bef|g2 f e c2|B3 ABc|
d2 c B F2|G2 F EBc|def g2 f| e3 d3:|
